!!!SOCIAL_FUNCTION:	canoe songs
!!!PDT:	1943
!!!OTL: No_71_Canoe_Song_(c).krn
!!!REG: British Columbia
**kern
*staff1
=1-
*clefF4
*k[f#]
*M2/4
4.r
8E\
=2
4E\
4E\
=3||
*M3/4
[2F#\
8.F#\L]
16G\Jk
=4||
*M2/4
4G\
(8.F#\L
16E\Jk)
=5
2E\
=6
8D#\
4.r
=7
4E\
8.F#\L
16G\Jk
=8
[2F#\
=9
8.F#\L]
16E\Jk
4E\
=10
4D#\
(4D#\
=11
4D\)
8.r
16E\
=12
4E\
8.F#\L
16G\Jk
=13
[2F#\
=14
8.F#\L]
16E\Jk
4E\
=15
4D\
4D\
=16
8D#\
4.r
=17
2E\
=18
8E\
4.r
=19||
*M3/4
4E\
8.F#\L
16G\Jk
4E\
=20
2.E\
=21
4E\
2r
==
*-
